blockchains/ethereum/assets/0x514910771AF9Ca656af840dff83E8264EcF986CA/logo.svg

<svg fill="none" height="250" viewBox="0 0 250 250" width="250" xmlns="http://www.w3.org/2000/svg" xmlns:xlink="http://www.w3.org/1999/xlink"><clipPath id="a"><path d="m0 0h250v250h-250z"/></clipPath><g clip-path="url(#a)"><path d="m125 250c69.036 0 125-55.964 125-125 0-69.0356-55.964-125-125-125-69.0356 0-125 55.9644-125 125 0 69.036 55.9644 125 125 125z" fill="#2a5ada"/><path d="m124.386 27.0356-17.766 10.2158-48.4142 27.9824-17.7666 10.2158v96.8274l17.7666 10.216 48.8582 27.983 17.766 10.215 17.767-10.215 47.97-27.983 17.766-10.216v-96.8274l-17.766-10.2158-48.414-27.9824zm-48.4136 124.8104v-55.9649l48.4136-27.9823 48.414 27.9823v55.9649l-48.414 27.982z" fill="#fff"/></g></svg>

<svg width="250" height="250" viewBox="0 0 250 250" fill="none" xmlns="http://www.w3.org/2000/svg">
<g clip-path="url(#clip0_7_45)">
<path d="M125 250C194.036 250 250 194.036 250 125C250 55.9644 194.036 0 125 0C55.9644 0 0 55.9644 0 125C0 194.036 55.9644 250 125 250Z" fill="#2A5ADA"/>
<path d="M124.386 27.0356L106.62 37.2514L58.2058 65.2338L40.4392 75.4496V172.277L58.2058 182.493L107.064 210.476L124.83 220.691L142.597 210.476L190.567 182.493L208.333 172.277V75.4496L190.567 65.2338L142.153 37.2514L124.386 27.0356ZM75.9724 151.846V95.8811L124.386 67.8988L172.8 95.8811V151.846L124.386 179.828L75.9724 151.846Z" fill="white"/>
</g>
<defs>
<clipPath id="clip0_7_45">
<rect width="250" height="250" fill="white"/>
</clipPath>
</defs>
</svg>
